img/svg/googleplay.svg

<svg width="162" height="39" viewBox="0 0 162 39" fill="none" xmlns="http://www.w3.org/2000/svg">
<path d="M52.3419 5.28488C52.3419 6.40449 52.062 7.38415 51.3622 8.0839C50.5225 8.92361 49.5429 9.34346 48.2833 9.34346C47.0237 9.34346 46.0441 8.92361 45.2044 8.0839C44.3647 7.2442 43.9448 6.26454 43.9448 5.00498C43.9448 3.74542 44.3647 2.76577 45.2044 1.92606C46.0441 1.08636 47.0237 0.666504 48.2833 0.666504C48.8431 0.666504 49.4029 0.806454 49.9627 1.08636C50.5225 1.36626 50.9424 1.64616 51.2223 2.06601L50.5225 2.76577C49.9627 2.06601 49.263 1.78611 48.2833 1.78611C47.4436 1.78611 46.6039 2.06601 46.0441 2.76577C45.3443 3.32557 45.0644 4.16528 45.0644 5.14493C45.0644 6.12459 45.3443 6.9643 46.0441 7.5241C46.7438 8.0839 47.4436 8.50376 48.2833 8.50376C49.263 8.50376 49.9627 8.22385 50.6625 7.5241C51.0823 7.10425 51.3622 6.54444 51.3622 5.84469H48.2833V4.72508H52.3419V5.28488ZM58.7796 1.78611H55.0009V4.44518H58.4997V5.42484H55.0009V8.0839H58.7796V9.20351H53.8813V0.806455H58.7796V1.78611ZM63.398 9.20351H62.2784V1.78611H59.8992V0.806455H65.7772V1.78611H63.398V9.20351ZM69.8358 9.20351V0.806455H70.9554V9.20351H69.8358ZM75.7137 9.20351H74.5941V1.78611H72.2149V0.806455H77.9529V1.78611H75.5737V9.20351H75.7137ZM89.009 8.0839C88.1693 8.92361 87.1897 9.34346 85.9301 9.34346C84.6706 9.34346 83.6909 8.92361 82.8512 8.0839C82.0115 7.2442 81.5916 6.26454 81.5916 5.00498C81.5916 3.74542 82.0115 2.76577 82.8512 1.92606C83.6909 1.08636 84.6706 0.666504 85.9301 0.666504C87.1897 0.666504 88.1693 1.08636 89.009 1.92606C89.8487 2.76577 90.2686 3.74542 90.2686 5.00498C90.2686 6.26454 89.8487 7.2442 89.009 8.0839ZM83.6909 7.38415C84.2507 7.94395 85.0904 8.3638 85.9301 8.3638C86.7698 8.3638 87.6095 8.0839 88.1693 7.38415C88.7291 6.82434 89.149 5.98464 89.149 5.00498C89.149 4.02533 88.8691 3.18562 88.1693 2.62582C87.6095 2.06601 86.7698 1.64616 85.9301 1.64616C85.0904 1.64616 84.2507 1.92606 83.6909 2.62582C83.1311 3.18562 82.7112 4.02533 82.7112 5.00498C82.7112 5.98464 82.9912 6.82434 83.6909 7.38415ZM91.8081 9.20351V0.806455H93.0676L97.1262 7.38415V0.806455H98.2458V9.20351H97.1262L92.7877 2.34592V9.20351H91.8081Z" fill="black"/>
<path d="M81.3112 21.5191C77.9524 21.5191 75.2933 24.0382 75.2933 27.537C75.2933 30.8958 77.9524 33.5549 81.3112 33.5549C84.6701 33.5549 87.3291 31.0358 87.3291 27.537C87.3291 23.8983 84.6701 21.5191 81.3112 21.5191ZM81.3112 31.0358C79.4919 31.0358 77.9524 29.4963 77.9524 27.397C77.9524 25.2978 79.4919 23.7583 81.3112 23.7583C83.1306 23.7583 84.6701 25.1578 84.6701 27.397C84.6701 29.4963 83.1306 31.0358 81.3112 31.0358ZM68.2958 21.5191C64.9369 21.5191 62.2779 24.0382 62.2779 27.537C62.2779 30.8958 64.9369 33.5549 68.2958 33.5549C71.6546 33.5549 74.3137 31.0358 74.3137 27.537C74.3137 23.8983 71.6546 21.5191 68.2958 21.5191ZM68.2958 31.0358C66.4764 31.0358 64.9369 29.4963 64.9369 27.397C64.9369 25.2978 66.4764 23.7583 68.2958 23.7583C70.1151 23.7583 71.6546 25.1578 71.6546 27.397C71.6546 29.4963 70.1151 31.0358 68.2958 31.0358ZM52.7612 23.3385V25.8576H58.7791C58.6391 27.2571 58.0793 28.3767 57.3796 29.0765C56.5399 29.9162 55.1404 30.8958 52.7612 30.8958C48.9825 30.8958 46.1835 27.9569 46.1835 24.1782C46.1835 20.3995 49.1225 17.4605 52.7612 17.4605C54.7205 17.4605 56.26 18.3002 57.3796 19.2799L59.1989 17.4605C57.6595 16.061 55.7002 14.9414 52.9011 14.9414C47.8629 14.9414 43.5244 19.1399 43.5244 24.1782C43.5244 29.2164 47.8629 33.4149 52.9011 33.4149C55.7002 33.4149 57.6595 32.5752 59.3389 30.7559C61.0183 29.0765 61.5781 26.6973 61.5781 24.8779C61.5781 24.3181 61.5781 23.7583 61.4382 23.3385H52.7612ZM116.299 25.2978C115.739 23.8983 114.34 21.5191 111.261 21.5191C108.182 21.5191 105.663 23.8983 105.663 27.537C105.663 30.8958 108.182 33.5549 111.541 33.5549C114.2 33.5549 115.879 31.8755 116.439 30.8958L114.48 29.4963C113.78 30.476 112.94 31.1757 111.541 31.1757C110.141 31.1757 109.301 30.6159 108.602 29.3564L116.579 25.9975L116.299 25.2978ZM108.182 27.2571C108.182 25.0179 110.001 23.7583 111.261 23.7583C112.24 23.7583 113.22 24.3181 113.5 25.0179L108.182 27.2571ZM101.604 32.9951H104.263V15.5012H101.604V32.9951ZM97.4056 22.7787C96.7058 22.0789 95.5862 21.3792 94.1867 21.3792C91.2478 21.3792 88.4487 24.0382 88.4487 27.397C88.4487 30.7559 91.1078 33.275 94.1867 33.275C95.5862 33.275 96.7059 32.5752 97.2657 31.8755H97.4056V32.7152C97.4056 34.9544 96.146 36.214 94.1867 36.214C92.6473 36.214 91.5277 35.0944 91.2478 34.1147L89.0085 35.0944C89.7083 36.6338 91.3877 38.5931 94.3267 38.5931C97.4056 38.5931 99.9247 36.7738 99.9247 32.4353V21.799H97.4056V22.7787ZM94.3267 31.0358C92.5073 31.0358 90.9679 29.4963 90.9679 27.397C90.9679 25.2978 92.5073 23.7583 94.3267 23.7583C96.146 23.7583 97.5456 25.2978 97.5456 27.397C97.5456 29.4963 96.146 31.0358 94.3267 31.0358ZM128.475 15.5012H122.177V32.9951H124.836V26.4174H128.475C131.414 26.4174 134.213 24.3181 134.213 20.9593C134.213 17.6005 131.414 15.5012 128.475 15.5012ZM128.615 23.8983H124.836V17.8804H128.615C130.574 17.8804 131.694 19.5598 131.694 20.8193C131.554 22.3588 130.434 23.8983 128.615 23.8983ZM144.709 21.3792C142.75 21.3792 140.79 22.2189 140.091 24.0382L142.47 25.0179C143.03 24.0382 143.869 23.7583 144.849 23.7583C146.249 23.7583 147.508 24.598 147.648 25.9975V26.1375C147.228 25.8576 146.109 25.4377 144.989 25.4377C142.47 25.4377 139.951 26.8372 139.951 29.3564C139.951 31.7355 142.05 33.275 144.289 33.275C146.109 33.275 146.948 32.4353 147.648 31.5956H147.788V32.9951H150.307V26.2774C150.027 23.1985 147.648 21.3792 144.709 21.3792ZM144.429 31.0358C143.589 31.0358 142.33 30.6159 142.33 29.4963C142.33 28.0968 143.869 27.677 145.129 27.677C146.249 27.677 146.808 27.9569 147.508 28.2368C147.228 29.9162 145.829 31.0358 144.429 31.0358ZM159.124 21.799L156.185 29.3564H156.045L152.966 21.799H150.167L154.786 32.4353L152.127 38.3132H154.786L161.923 21.799H159.124ZM135.612 32.9951H138.271V15.5012H135.612V32.9951Z" fill="black"/>
<path d="M0.559803 1.50586C0.13995 1.92571 0 2.62547 0 3.46517V34.3943C0 35.2341 0.279902 35.9338 0.699755 36.3537L0.839706 36.4936L18.1936 19.1397V18.8598L0.559803 1.50586Z" fill="url(#paint0_linear)"/>
<path d="M23.7917 25.0179L18.0537 19.2799V18.8601L23.7917 13.1221L23.9316 13.262L30.7892 17.1807C32.7485 18.3003 32.7485 20.1196 30.7892 21.2392L23.7917 25.0179Z" fill="url(#paint1_linear)"/>
<path d="M23.9314 24.878L18.0534 19L0.55957 36.4939C1.25933 37.1937 2.23898 37.1937 3.49854 36.6339L23.9314 24.878Z" fill="url(#paint2_linear)"/>
<path d="M23.9314 13.1219L3.49854 1.50595C2.23898 0.806198 1.25933 0.946149 0.55957 1.6459L18.0534 18.9998L23.9314 13.1219Z" fill="url(#paint3_linear)"/>
<path opacity="0.2" d="M23.7914 24.7378L3.49854 36.2138C2.37893 36.9135 1.39928 36.7736 0.699522 36.2138L0.55957 36.3537L0.699522 36.4937C1.39928 37.0535 2.37893 37.1934 3.49854 36.4937L23.7914 24.7378Z" fill="black"/>
<path opacity="0.2" d="M0.559803 36.214C0.13995 35.7941 0 35.0944 0 34.2547V34.3946C0 35.2343 0.279902 35.9341 0.699754 36.3539V36.214H0.559803ZM30.7892 20.8194L23.7917 24.738L23.9316 24.8779L30.7892 20.9593C31.7689 20.3995 32.1887 19.6998 32.1887 19C32.1887 19.6998 31.6289 20.2596 30.7892 20.8194Z" fill="black"/>
<path opacity="0.2" d="M3.49877 1.64592L30.7892 17.1805C31.6289 17.7403 32.1887 18.3001 32.1887 18.9999C32.1887 18.3001 31.7689 17.6003 30.7892 17.0405L3.49877 1.50597C1.53946 0.386359 0 1.22606 0 3.46528V3.60523C0 1.50597 1.53946 0.52631 3.49877 1.64592Z" fill="white"/>
<defs>
<linearGradient id="paint0_linear" x1="16.5142" y1="3.19927" x2="-6.97377" y2="26.6858" gradientUnits="userSpaceOnUse">
<stop stop-color="#00A0FF"/>
<stop offset="0.007" stop-color="#00A1FF"/>
<stop offset="0.26" stop-color="#00BEFF"/>
<stop offset="0.512" stop-color="#00D2FF"/>
<stop offset="0.76" stop-color="#00DFFF"/>
<stop offset="1" stop-color="#00E3FF"/>
</linearGradient>
<linearGradient id="paint1_linear" x1="33.3559" y1="19.0014" x2="-0.507933" y2="19.0014" gradientUnits="userSpaceOnUse">
<stop stop-color="#FFE000"/>
<stop offset="0.409" stop-color="#FFBD00"/>
<stop offset="0.775" stop-color="#FFA500"/>
<stop offset="1" stop-color="#FF9C00"/>
</linearGradient>
<linearGradient id="paint2_linear" x1="20.7503" y1="22.2133" x2="-11.0998" y2="54.0633" gradientUnits="userSpaceOnUse">
<stop stop-color="#FF3A44"/>
<stop offset="1" stop-color="#C31162"/>
</linearGradient>
<linearGradient id="paint3_linear" x1="-3.78311" y1="-8.74406" x2="10.4401" y2="5.47916" gradientUnits="userSpaceOnUse">
<stop stop-color="#32A071"/>
<stop offset="0.069" stop-color="#2DA771"/>
<stop offset="0.476" stop-color="#15CF74"/>
<stop offset="0.801" stop-color="#06E775"/>
<stop offset="1" stop-color="#00F076"/>
</linearGradient>
</defs>
</svg>

<svg width="162" height="39" viewBox="0 0 162 39" fill="none" xmlns="http://www.w3.org/2000/svg"><path d="M52.342 5.285c0 1.12-.28 2.1-.98 2.799-.84.84-1.82 1.26-3.079 1.26-1.26 0-2.239-.42-3.079-1.26-.84-.84-1.26-1.82-1.26-3.079 0-1.26.42-2.24 1.26-3.079.84-.84 1.82-1.26 3.08-1.26.56 0 1.119.14 1.679.42.56.28.98.56 1.26.98l-.7.7c-.56-.7-1.26-.98-2.24-.98-.84 0-1.68.28-2.239.98-.7.56-.98 1.4-.98 2.379 0 .98.28 1.82.98 2.38.7.559 1.4.979 2.24.979.979 0 1.679-.28 2.379-.98.42-.42.7-.98.7-1.68h-3.08V4.726h4.059v.56zm6.438-3.499H55v2.66h3.5v.979H55v2.659h3.78v1.12h-4.9V.806h4.899v.98zm4.618 7.418h-1.12V1.786H59.9v-.98h5.878v.98h-2.379v7.418zm6.438 0V.806h1.12v8.398h-1.12zm5.878 0h-1.12V1.786h-2.38v-.98h5.739v.98h-2.38v7.418h.14zm13.295-1.12c-.84.84-1.82 1.26-3.079 1.26-1.26 0-2.24-.42-3.079-1.26-.84-.84-1.26-1.82-1.26-3.079 0-1.26.42-2.24 1.26-3.079.84-.84 1.82-1.26 3.08-1.26 1.259 0 2.238.42 3.078 1.26.84.84 1.26 1.82 1.26 3.079 0 1.26-.42 2.24-1.26 3.079zm-5.318-.7c.56.56 1.4.98 2.24.98.839 0 1.678-.28 2.238-.98.56-.56.98-1.4.98-2.379 0-.98-.28-1.82-.98-2.38-.56-.559-1.4-.979-2.239-.979-.84 0-1.68.28-2.24.98a3.38 3.38 0 00-.979 2.379c0 .98.28 1.82.98 2.38zm8.117 1.82V.806h1.26l4.058 6.578V.806h1.12v8.398h-1.12l-4.338-6.858v6.858h-.98zM81.311 21.52c-3.359 0-6.018 2.518-6.018 6.017a5.973 5.973 0 006.018 6.018c3.36 0 6.018-2.52 6.018-6.018 0-3.639-2.659-6.018-6.018-6.018zm0 9.516c-1.82 0-3.359-1.54-3.359-3.639 0-2.1 1.54-3.639 3.36-3.639 1.819 0 3.358 1.4 3.358 3.639 0 2.1-1.54 3.639-3.359 3.639zm-13.015-9.517c-3.36 0-6.018 2.52-6.018 6.018a5.973 5.973 0 006.018 6.018c3.359 0 6.018-2.52 6.018-6.018 0-3.639-2.66-6.018-6.018-6.018zm0 9.517c-1.82 0-3.36-1.54-3.36-3.639 0-2.1 1.54-3.639 3.36-3.639 1.82 0 3.359 1.4 3.359 3.639 0 2.1-1.54 3.639-3.36 3.639zM52.76 23.338v2.52h6.018c-.14 1.4-.7 2.519-1.4 3.218-.84.84-2.239 1.82-4.618 1.82-3.779 0-6.578-2.94-6.578-6.718 0-3.779 2.94-6.718 6.578-6.718 1.96 0 3.499.84 4.619 1.82l1.819-1.82c-1.54-1.399-3.499-2.519-6.298-2.519-5.038 0-9.377 4.199-9.377 9.237s4.339 9.237 9.377 9.237c2.8 0 4.758-.84 6.438-2.66 1.68-1.678 2.24-4.058 2.24-5.877 0-.56 0-1.12-.14-1.54H52.76zm63.538 1.96c-.56-1.4-1.959-3.779-5.038-3.779s-5.598 2.38-5.598 6.018c0 3.359 2.519 6.018 5.878 6.018 2.659 0 4.338-1.68 4.898-2.66l-1.959-1.399c-.7.98-1.54 1.68-2.939 1.68-1.4 0-2.24-.56-2.939-1.82l7.977-3.359-.28-.7zm-8.117 1.96c0-2.24 1.819-3.5 3.079-3.5.979 0 1.959.56 2.239 1.26l-5.318 2.24zm-6.578 5.737h2.659V15.501h-2.659v17.494zM97.406 22.78c-.7-.7-1.82-1.4-3.22-1.4-2.938 0-5.737 2.66-5.737 6.018 0 3.359 2.659 5.878 5.738 5.878 1.4 0 2.519-.7 3.079-1.4h.14v.84c0 2.24-1.26 3.499-3.22 3.499-1.539 0-2.658-1.12-2.938-2.1l-2.24.98c.7 1.54 2.38 3.5 5.319 3.5 3.079 0 5.598-1.82 5.598-6.159V21.8h-2.52v.98zm-3.08 8.257c-1.819 0-3.358-1.54-3.358-3.639 0-2.1 1.54-3.639 3.359-3.639s3.219 1.54 3.219 3.639c0 2.1-1.4 3.639-3.22 3.639zm34.15-15.537h-6.298v17.494h2.659v-6.578h3.639c2.939 0 5.738-2.099 5.738-5.458 0-3.358-2.799-5.458-5.738-5.458zm.14 8.397h-3.779V17.88h3.779c1.959 0 3.079 1.68 3.079 2.94-.14 1.539-1.26 3.078-3.079 3.078zm16.094-2.519c-1.959 0-3.919.84-4.618 2.66l2.379.979c.56-.98 1.399-1.26 2.379-1.26 1.4 0 2.659.84 2.799 2.24v.14c-.42-.28-1.539-.7-2.659-.7-2.519 0-5.038 1.4-5.038 3.918 0 2.38 2.099 3.919 4.338 3.919 1.82 0 2.659-.84 3.359-1.68h.14v1.4h2.519v-6.718c-.28-3.079-2.659-4.898-5.598-4.898zm-.28 9.657c-.84 0-2.099-.42-2.099-1.54 0-1.4 1.539-1.819 2.799-1.819 1.12 0 1.679.28 2.379.56-.28 1.68-1.679 2.799-3.079 2.799zm14.695-9.237l-2.939 7.557h-.14l-3.079-7.557h-2.799l4.619 10.636-2.659 5.878h2.659l7.137-16.514h-2.799zm-23.512 11.196h2.659V15.501h-2.659v17.494z" fill="#000"/><path d="M.56 1.506c-.42.42-.56 1.12-.56 1.96v30.928c0 .84.28 1.54.7 1.96l.14.14L18.194 19.14v-.28L.56 1.506z" fill="url(#paint0_linear)"/><path d="M23.792 25.018l-5.738-5.738v-.42l5.738-5.738.14.14 6.857 3.919c1.96 1.12 1.96 2.939 0 4.058l-6.997 3.779z" fill="url(#paint1_linear)"/><path d="M23.931 24.878L18.053 19 .56 36.494c.7.7 1.679.7 2.939.14L23.93 24.878z" fill="url(#paint2_linear)"/><path d="M23.931 13.122L3.5 1.506c-1.26-.7-2.24-.56-2.94.14L18.054 19l5.878-5.878z" fill="url(#paint3_linear)"/><path opacity=".2" d="M23.791 24.738L3.5 36.214c-1.12.7-2.1.56-2.8 0l-.14.14.14.14c.7.56 1.68.7 2.8 0l20.29-11.756z" fill="#000"/><path opacity=".2" d="M.56 36.214c-.42-.42-.56-1.12-.56-1.96v.14c0 .84.28 1.54.7 1.96v-.14H.56zm30.23-15.395l-6.998 3.919.14.14 6.857-3.919c.98-.56 1.4-1.26 1.4-1.959 0 .7-.56 1.26-1.4 1.82z" fill="#000"/><path opacity=".2" d="M3.499 1.646l27.29 15.534c.84.56 1.4 1.12 1.4 1.82 0-.7-.42-1.4-1.4-1.96L3.5 1.507C1.539.386 0 1.226 0 3.466v.14c0-2.1 1.54-3.08 3.499-1.96z" fill="#fff"/><defs><linearGradient id="paint0_linear" x1="16.514" y1="3.199" x2="-6.974" y2="26.686" gradientUnits="userSpaceOnUse"><stop stop-color="#00A0FF"/><stop offset=".007" stop-color="#00A1FF"/><stop offset=".26" stop-color="#00BEFF"/><stop offset=".512" stop-color="#00D2FF"/><stop offset=".76" stop-color="#00DFFF"/><stop offset="1" stop-color="#00E3FF"/></linearGradient><linearGradient id="paint1_linear" x1="33.356" y1="19.001" x2="-.508" y2="19.001" gradientUnits="userSpaceOnUse"><stop stop-color="#FFE000"/><stop offset=".409" stop-color="#FFBD00"/><stop offset=".775" stop-color="orange"/><stop offset="1" stop-color="#FF9C00"/></linearGradient><linearGradient id="paint2_linear" x1="20.75" y1="22.213" x2="-11.1" y2="54.063" gradientUnits="userSpaceOnUse"><stop stop-color="#FF3A44"/><stop offset="1" stop-color="#C31162"/></linearGradient><linearGradient id="paint3_linear" x1="-3.783" y1="-8.744" x2="10.44" y2="5.479" gradientUnits="userSpaceOnUse"><stop stop-color="#32A071"/><stop offset=".069" stop-color="#2DA771"/><stop offset=".476" stop-color="#15CF74"/><stop offset=".801" stop-color="#06E775"/><stop offset="1" stop-color="#00F076"/></linearGradient></defs></svg>
